X:39
T: Péarla an bhrollaigh bháin, S. 46
N: I0538
O: Irland
S: O'SULLIVAN, Donal: Song of the Irish]
R: Liebeslied]
M: 4/4
L: 1/16
K: D
A2Bc | d2c2B2A2d6B2 | A2F2E2D2E6FG | A4F2D2G2F2E2D2 | D8D4
A2Bc | d2c2B2A2d6B2 | A2F2E2D2E6FG | A2A2F2D2G2F2E2D2 | D8D4
A2G2 | F2A2B2d2c6A2 | d2c2B2A2A6A2 | B2c2d2f2e2d2c2A2 | A8A
A2Bc | D2c2B2A2d6B2 | A2F2E2D2E4F2G2 | A4F2D2G2F2E2D2 | D8D4

